X:487
T:The Tar Road to Sligo
C:Irish
R:jig
M:6/8
K: D
 e|:"Bm"fBB Bcd|"A"eAA BAG|"D"FAA ABc|"G"dcd "A"efg|
"Bm"fdB Bcd |"A"eAA BAG|"D"FAA "A"Aag|[1"D"fdc d2 e :||[2"D" fdc d2 B ||
|"D"Adf Adf|"G"gfg efg|"D"afd "Bm"dcd|"Em"Bed "A"cBc|
"D"Adf Adf|"G"g2 g efg|"D"a2 a "Em"bge|"A"edc "D"d2 B||
"D"Adf Adf|"G"gfg efg|"D"afd "Bm"dcd|"Em"Bed "A"cBA|
"D"fdA "Em"gec|"D"a2 a "G"bge|"A"~a3 bge|"A"edc "D"d2 |]

%%newpage

